deployments/warp_routes/wfragJTO/logo.svg

<svg xmlns="http://www.w3.org/2000/svg" width="1630" height="1630" fill="none" viewBox="0 0 1630 1630"><g clip-path="url(#a)"><path fill="url(#b)" d="M814.98 1629.96c450.1 0 814.98-364.88 814.98-814.98S1265.08 0 814.98 0 0 364.879 0 814.98s364.879 814.98 814.98 814.98"/><path stroke="#000" stroke-linecap="round" stroke-miterlimit="10" stroke-width="20" d="M763.23 1523.43c-367.88-26.75-658.04-333.66-658.04-708.371s290.16-681.62 658.04-708.37" opacity=".5"/><path stroke="#000" stroke-linecap="round" stroke-miterlimit="10" stroke-width="20" d="M763.23 67.01C372.98 93.84 64.72 418.89 64.72 815.96s308.26 722.12 698.51 748.95m103.49-40.48c367.88-26.75 658.04-333.66 658.04-708.371s-290.16-681.62-658.04-708.37" opacity=".5"/><path stroke="#000" stroke-linecap="round" stroke-miterlimit="10" stroke-width="20" d="M866.72 68.01c390.26 26.83 698.51 351.88 698.51 748.95s-308.26 722.12-698.51 748.95" opacity=".5"/><g filter="url(#c)"><path fill="url(#d)" d="M1301.74 338.258c-65.3-65.304-229.9-13.694-414.243 116.402 29.184-1.884 52.4-1.884 70.169-1.095 98.794-46.184 181.924-53.889 223.824-11.987 79.48 79.482-19.49 307.333-221.082 508.91-201.586 201.582-429.427 300.562-508.91 221.082-56.662-56.66-22.623-188.711 74.609-332.886-7.864-8.545-13.162-15.49-16.733-21.035-161.629 207.391-232.301 400.911-160.12 473.091 91.707 91.71 379.278-47.16 642.302-310.18 263.024-263.024 401.894-550.595 310.184-642.302"/></g><path fill="#000" d="M880.983 656.068c-46.567 32.393-96.646 43.495-150.135 33.236-53.58-10.189-96.144-38.417-127.779-84.603L556 535.968 623.52 489l47.075 68.732c18.725 27.347 43.718 43.919 75.073 49.66 31.262 5.807 60.706-.897 88.155-19.991l119.12-83.375c37.855-26.499 89.877-16.97 116.057 21.264zm91.881 226.692c-32.241-46.626-43.351-96.719-33.262-150.186 10.025-53.564 37.972-96.077 83.778-127.624l68.15-46.95 46.75 67.602-68.15 46.95c-27.12 18.674-43.53 43.639-49.18 74.982-5.71 31.251 1 60.707 20.01 88.185l83.16 119.522c26.28 37.763 16.83 89.649-21.08 115.759zM744.75 973.932c46.754-32.393 97.023-43.495 150.72-33.236 53.795 10.189 96.52 38.417 128.28 84.604l47.25 68.73-67.78 46.97-47.256-68.73c-18.804-27.35-43.895-43.92-75.371-49.66-31.379-5.81-60.943.89-88.499 19.99l-119.58 83.37c-38.007 26.5-90.226 16.97-116.514-21.26zm-87.432-220.327c32.082 46.717 43.137 96.912 33.097 150.482-9.975 53.668-37.784 96.263-83.362 127.873L539.237 1079l-46.517-67.73 67.82-47.044c26.982-18.715 43.31-43.724 48.927-75.127 5.681-31.312-.995-60.825-19.903-88.361l-82.76-119.749C480.657 643.152 490.061 591.17 527.786 565z"/></g><defs><linearGradient id="b" x1="238.7" x2="1391.26" y1="1391.26" y2="238.7" gradientUnits="userSpaceOnUse"><stop stop-color="#A452FC"/><stop offset=".35" stop-color="#FBC7FF"/><stop offset=".52" stop-color="#FDE3FF"/><stop offset="1" stop-color="#E0BEFF"/></linearGradient><linearGradient id="d" x1="1301" x2="343.997" y1="324.502" y2="1277.5" gradientUnits="userSpaceOnUse"><stop stop-opacity="0"/><stop offset=".15"/><stop offset=".75"/><stop offset="1" stop-opacity="0"/></linearGradient><clipPath id="a"><path fill="#fff" d="M0 0h1629.96v1629.96H0z"/></clipPath><filter id="c" width="1069" height="1069" x="291" y="280" color-interpolation-filters="sRGB" filterUnits="userSpaceOnUse"><feFlood flood-opacity="0" result="BackgroundImageFix"/><feColorMatrix in="SourceAlpha" result="hardAlpha" values="0 0 0 0 0 0 0 0 0 0 0 0 0 0 0 0 0 0 127 0"/><feOffset/><feGaussianBlur stdDeviation="15"/><feColorMatrix values="0 0 0 0 0 0 0 0 0 0 0 0 0 0 0 0 0 0 0.7 0"/><feBlend in2="BackgroundImageFix" result="effect1_dropShadow_17375_434"/><feBlend in="SourceGraphic" in2="effect1_dropShadow_17375_434" result="shape"/></filter></defs></svg>

<svg width="1630" height="1630" viewBox="0 0 1630 1630" fill="none" xmlns="http://www.w3.org/2000/svg">
<g clip-path="url(#clip0_17375_434)">
<path d="M814.98 1629.96C1265.08 1629.96 1629.96 1265.08 1629.96 814.98C1629.96 364.879 1265.08 0 814.98 0C364.879 0 0 364.879 0 814.98C0 1265.08 364.879 1629.96 814.98 1629.96Z" fill="url(#paint0_linear_17375_434)"/>
<path opacity="0.5" d="M763.23 1523.43C395.35 1496.68 105.19 1189.77 105.19 815.059C105.19 440.349 395.35 133.439 763.23 106.689" stroke="black" stroke-width="20" stroke-miterlimit="10" stroke-linecap="round"/>
<path opacity="0.5" d="M763.23 67.0098C372.98 93.8398 64.7202 418.89 64.7202 815.96C64.7202 1213.03 372.98 1538.08 763.23 1564.91" stroke="black" stroke-width="20" stroke-miterlimit="10" stroke-linecap="round"/>
<path opacity="0.5" d="M866.72 1524.43C1234.6 1497.68 1524.76 1190.77 1524.76 816.059C1524.76 441.349 1234.6 134.439 866.72 107.689" stroke="black" stroke-width="20" stroke-miterlimit="10" stroke-linecap="round"/>
<path opacity="0.5" d="M866.72 68.0098C1256.98 94.8398 1565.23 419.89 1565.23 816.96C1565.23 1214.03 1256.97 1539.08 866.72 1565.91" stroke="black" stroke-width="20" stroke-miterlimit="10" stroke-linecap="round"/>
<g filter="url(#filter0_d_17375_434)">
<path d="M1301.74 338.258C1236.44 272.954 1071.84 324.564 887.497 454.66C916.681 452.776 939.897 452.776 957.666 453.565C1056.46 407.381 1139.59 399.676 1181.49 441.578C1260.97 521.06 1162 748.911 960.408 950.488C758.822 1152.07 530.981 1251.05 451.498 1171.57C394.836 1114.91 428.875 982.859 526.107 838.684C518.243 830.139 512.945 823.194 509.374 817.649C347.745 1025.04 277.073 1218.56 349.254 1290.74C440.961 1382.45 728.532 1243.58 991.556 980.56C1254.58 717.536 1393.45 429.965 1301.74 338.258Z" fill="url(#paint1_linear_17375_434)"/>
</g>
<path d="M880.983 656.068C834.416 688.461 784.337 699.563 730.848 689.304C677.268 679.115 634.704 650.887 603.069 604.701L556 535.968L623.52 489L670.595 557.732C689.32 585.079 714.313 601.651 745.668 607.392C776.93 613.199 806.374 606.495 833.823 587.401L952.943 504.026C990.798 477.527 1042.82 487.056 1069 525.29L880.983 656.068Z" fill="black"/>
<path d="M972.864 882.76C940.623 836.134 929.513 786.041 939.602 732.574C949.627 679.01 977.574 636.497 1023.38 604.95L1091.53 558L1138.28 625.602L1070.13 672.552C1043.01 691.226 1026.6 716.191 1020.95 747.534C1015.24 778.785 1021.95 808.241 1040.96 835.719L1124.12 955.241C1150.4 993.004 1140.95 1044.89 1103.04 1071L972.864 882.76Z" fill="black"/>
<path d="M744.75 973.932C791.504 941.539 841.773 930.437 895.47 940.696C949.265 950.885 991.99 979.113 1023.75 1025.3L1071 1094.03L1003.22 1141L955.964 1072.27C937.16 1044.92 912.069 1028.35 880.593 1022.61C849.214 1016.8 819.65 1023.5 792.094 1042.6L672.514 1125.97C634.507 1152.47 582.288 1142.94 556 1104.71L744.75 973.932Z" fill="black"/>
<path d="M657.318 753.605C689.4 800.322 700.455 850.517 690.415 904.087C680.44 957.755 652.631 1000.35 607.053 1031.96L539.237 1079L492.72 1011.27L560.54 964.226C587.522 945.511 603.85 920.502 609.467 889.099C615.148 857.787 608.472 828.274 589.564 800.738L506.804 680.989C480.657 643.152 490.061 591.17 527.786 565L657.318 753.605Z" fill="black"/>
</g>
<defs>
<filter id="filter0_d_17375_434" x="291" y="280" width="1069" height="1069" filterUnits="userSpaceOnUse" color-interpolation-filters="sRGB">
<feFlood flood-opacity="0" result="BackgroundImageFix"/>
<feColorMatrix in="SourceAlpha" type="matrix" values="0 0 0 0 0 0 0 0 0 0 0 0 0 0 0 0 0 0 127 0" result="hardAlpha"/>
<feOffset/>
<feGaussianBlur stdDeviation="15"/>
<feColorMatrix type="matrix" values="0 0 0 0 0 0 0 0 0 0 0 0 0 0 0 0 0 0 0.7 0"/>
<feBlend mode="normal" in2="BackgroundImageFix" result="effect1_dropShadow_17375_434"/>
<feBlend mode="normal" in="SourceGraphic" in2="effect1_dropShadow_17375_434" result="shape"/>
</filter>
<linearGradient id="paint0_linear_17375_434" x1="238.7" y1="1391.26" x2="1391.26" y2="238.7" gradientUnits="userSpaceOnUse">
<stop stop-color="#A452FC"/>
<stop offset="0.35" stop-color="#FBC7FF"/>
<stop offset="0.52" stop-color="#FDE3FF"/>
<stop offset="1" stop-color="#E0BEFF"/>
</linearGradient>
<linearGradient id="paint1_linear_17375_434" x1="1301" y1="324.502" x2="343.997" y2="1277.5" gradientUnits="userSpaceOnUse">
<stop stop-opacity="0"/>
<stop offset="0.15"/>
<stop offset="0.75"/>
<stop offset="1" stop-opacity="0"/>
</linearGradient>
<clipPath id="clip0_17375_434">
<rect width="1629.96" height="1629.96" fill="white"/>
</clipPath>
</defs>
</svg>
